X: 17187
T: Henry Blood's
R: reel
M: 4/4
K: Aminor
|:A2EA GEDE|GDEG AEAc|A2cA GEDE|GEE2 DEE2|
A2EA GEDE|GDEG AEAc|dcBG AGED|AGED EAA2:|
|:AEE2 cEE2|AEAc dGBd|cEE2 AEAc|dcBG AEAc|
AEE2 cEAc|dGBd e2Ac|dcBG AGED|AGED EAA2:|

